la/lock-open-solid.svg

<svg xmlns="http://www.w3.org/2000/svg" viewBox="0 0 32 32" height="1em" width="1em">
  <path d="M 16 3 C 12.964844 3 10.414063 4.964844 9.375 7.625 L 11.21875 8.375 C 11.976563 6.433594 13.835938 5 16 5 C 18.753906 5 21 7.246094 21 10 L 21 13 L 6 13 L 6 29 L 26 29 L 26 13 L 23 13 L 23 10 C 23 6.15625 19.84375 3 16 3 Z M 8 15 L 24 15 L 24 27 L 8 27 Z"/>
</svg>

<svg xmlns="http://www.w3.org/2000/svg" viewBox="0 0 32 32" height="1em" width="1em">
  <path d="M16 3c-3.035 0-5.586 1.965-6.625 4.625l1.844.75C11.977 6.434 13.836 5 16 5c2.754 0 5 2.246 5 5v3H6v16h20V13h-3v-3c0-3.844-3.156-7-7-7ZM8 15h16v12H8Z"/>
</svg>
